svgs/thin/mug-tea-saucer.svg

<svg xmlns="http://www.w3.org/2000/svg" viewBox="0 0 640 512"><!-- Font Awesome Pro 6.0.0-alpha2 by @fontawesome - https://fontawesome.com License - https://fontawesome.com/license (Commercial License) --><path d="M568 416C563.594 416 560 419.578 560 424C560 446.062 542.062 464 520 464H56C33.938 464 16 446.062 16 424C16 419.578 12.406 416 8 416S0 419.578 0 424C0 454.875 25.125 480 56 480H520C550.875 480 576 454.875 576 424C576 419.578 572.406 416 568 416ZM528 32H120C113.625 32 107.5 34.5 103 39S96 49.625 96 56V288C96 341 139 384 192 384H384C437 384 480 341 480 288V256H528C589.75 256 640 205.75 640 144S589.75 32 528 32ZM464 288C464 332.111 428.111 368 384 368H192C147.889 368 112 332.111 112 288V56C112 50.871 116.172 48 120 48H216V88L169.373 134.627C163.371 140.629 160 148.768 160 157.254V224C160 241.674 174.328 256 192 256H256C273.674 256 288 241.674 288 224V157.254C288 148.768 284.629 140.629 278.629 134.627L232 88V48H464V288ZM224 102.627L267.312 145.939C270.336 148.963 272 152.98 272 157.254V224C272 232.822 264.822 240 256 240H192C183.178 240 176 232.822 176 224V157.254C176 152.98 177.666 148.963 180.686 145.941L224 102.627ZM528 240H480V48H528C580.938 48 624 91.062 624 144S580.938 240 528 240Z"/></svg>

<svg xmlns="http://www.w3.org/2000/svg" viewBox="0 0 640 512"><!--! Font Awesome Pro 6.3.0 by @fontawesome - https://fontawesome.com License - https://fontawesome.com/license (Commercial License) Copyright 2023 Fonticons, Inc. --><path d="M568 416c-4.406 0-8 3.578-8 8c0 22.06-17.94 40-40 40H56c-22.06 0-40-17.94-40-40C16 419.6 12.41 416 8 416S0 419.6 0 424C0 454.9 25.12 480 56 480h464c30.88 0 56-25.12 56-56C576 419.6 572.4 416 568 416zM528 32H119.1C113.6 32 107.5 34.5 102.1 39S95.99 49.63 95.99 56L95.1 288c0 53 43 96 96 96h192c53 0 96-43 96-96L480 256h48C589.8 256 640 205.8 640 144S589.8 32 528 32zM464 288c0 44.11-35.89 80-80 80H192c-44.11 0-80-35.89-80-80V56c0-5.129 4.172-8 8-8h96v40L169.4 134.6c-6.002 6.002-9.375 14.14-9.375 22.63L159.1 224c0 17.67 14.33 32 32 32h64c17.67 0 32-14.33 32-32L287.1 157.3c0-8.486-3.374-16.62-9.374-22.63L232 88V48h232V288zM224 102.6l43.31 43.31C270.3 148.1 272 152.1 272 157.3V224c0 8.822-7.178 16-16 16H192C183.2 240 176 232.8 176 224V157.3c0-4.273 1.666-8.291 4.686-11.31L224 102.6zM528 240H480v-192h48c52.94 0 96 43.06 96 96S580.9 240 528 240z"/></svg>
